src/assets/outline/Ram.svg

<svg width="24" height="24" viewBox="0 0 24 24"  xmlns="http://www.w3.org/2000/svg">
<path d="M15.5 22.75H8.5C4.79 22.75 2.75 20.71 2.75 17V7C2.75 3.29 4.79 1.25 8.5 1.25H15.5C19.15 1.25 21.25 3.35 21.25 7V8C21.25 8.96 20.46 9.75 19.5 9.75C19.36 9.75 19.25 9.86 19.25 10V12.17C19.25 12.5 19.38 12.82 19.62 13.05L20.45 13.88C20.97 14.4 21.26 15.09 21.26 15.82V17C21.25 20.65 19.15 22.75 15.5 22.75ZM8.5 2.75C5.64 2.75 4.25 4.14 4.25 7V17C4.25 19.86 5.64 21.25 8.5 21.25H15.5C18.32 21.25 19.75 19.82 19.75 17V15.83C19.75 15.5 19.62 15.18 19.38 14.95L18.55 14.12C18.03 13.6 17.74 12.91 17.74 12.18V10C17.74 9.04 18.53 8.25 19.49 8.25C19.63 8.25 19.74 8.14 19.74 8V7C19.74 4.18 18.31 2.75 15.49 2.75H8.5Z" />
<path d="M16.01 22.7202C15.6 22.7202 15.26 22.3902 15.26 21.9802L15.23 18.9902C15.23 18.3002 14.66 17.7502 13.98 17.7502H9.97998C9.64998 17.7502 9.32998 17.8802 9.08998 18.1202C8.85998 18.3502 8.72998 18.6702 8.72998 19.0002L8.73998 21.9702C8.73998 22.3802 8.40998 22.7202 7.98998 22.7202C7.57998 22.7202 7.23998 22.3902 7.23998 21.9702L7.22998 19.0002C7.22998 18.2602 7.50998 17.5702 8.02998 17.0502C8.54998 16.5302 9.23998 16.2402 9.97998 16.2402H13.99C15.5 16.2402 16.73 17.4702 16.74 18.9702L16.77 21.9502C16.77 22.3802 16.43 22.7202 16.01 22.7202C16.01 22.7202 16.02 22.7202 16.01 22.7202Z" />
<path d="M13.9702 8.53027H7.97021C7.56021 8.53027 7.22021 8.19027 7.22021 7.78027C7.22021 7.37027 7.56021 7.03027 7.97021 7.03027H13.9702C14.3802 7.03027 14.7202 7.37027 14.7202 7.78027C14.7202 8.19027 14.3902 8.53027 13.9702 8.53027Z" />
</svg>

<?xml version="1.0" encoding="UTF-8"?>
<svg width="24" height="24" viewBox="0 0 24 24" xmlns="http://www.w3.org/2000/svg">
 <path d="m15.5 22.75h-7c-3.71 0-5.75-2.04-5.75-5.75v-10c0-3.71 2.04-5.75 5.75-5.75h7c3.65 0 5.75 2.1 5.75 5.75v1c0 0.96-0.79 1.75-1.75 1.75-0.14 0-0.25 0.11-0.25 0.25v2.17c0 0.33 0.13 0.65 0.37 0.88l0.83 0.83c0.52 0.52 0.81 1.21 0.81 1.94v1.18c-0.01 3.65-2.11 5.75-5.76 5.75zm-7-20c-2.86 0-4.25 1.39-4.25 4.25v10c0 2.86 1.39 4.25 4.25 4.25h7c2.82 0 4.25-1.43 4.25-4.25v-1.17c0-0.33-0.13-0.65-0.37-0.88l-0.83-0.83c-0.52-0.52-0.81-1.21-0.81-1.94v-2.18c0-0.96 0.79-1.75 1.75-1.75 0.14 0 0.25-0.11 0.25-0.25v-1c0-2.82-1.43-4.25-4.25-4.25h-6.99z"/>
 <path d="m16.01 22.72c-0.41 0-0.75-0.33-0.75-0.74l-0.03-2.99c0-0.69-0.57-1.24-1.25-1.24h-4c-0.33 0-0.65 0.13-0.89 0.37-0.23 0.23-0.36 0.55-0.36 0.88l0.01 2.97c0 0.41-0.33 0.75-0.75 0.75-0.41 0-0.75-0.33-0.75-0.75l-0.01-2.97c0-0.74 0.28-1.43 0.8-1.95s1.21-0.81 1.95-0.81h4.01c1.51 0 2.74 1.23 2.75 2.73l0.03 2.98c0 0.43-0.34 0.77-0.76 0.77 0 0 0.01 0 0 0z"/>
 <path d="m13.97 8.5303h-6c-0.41 0-0.75-0.34-0.75-0.75s0.34-0.75 0.75-0.75h6c0.41 0 0.75 0.34 0.75 0.75s-0.33 0.75-0.75 0.75z"/>
</svg>
